!!!ONB: MCCC : IFC0057_02 : Extracted Monophonic Melody
!!!COM: Chopin, Frédéric
!!!OPR: Mazurkas
!!!OMV: 2
!!!SCT: Op.63
!!!ODT: 1846///
**kern
*thru
*staff1
*clefG2
*k[b-e-a-d-]
*A-:
*M3/4
*MM120
4.cc
8dd-
=2
8cc
8b-
4a-
4cc
=3
4dd-
4.ee-
8ff
=4
8dd
8ff
4ee-
4aa-
=5
4r
4.cc
8dd-
=6
8cc
8b-
4a-
4cc
=7
4f
4.g
8a-
=8
8a
8cc
8b-
8ee-
4f
=9
8e-
8r
4.cc
8dd-
=10
8cc
8b-
4a-
4cc
=11
4dd-
4.ee-
8ff
=12
8dd
8ff
4ee-
4ccc
=13
4r
4cc
8.dd-
16cc
=14
8.cc
16b-
4a-
4cc
=15
4g
4.ee-
8b
=16
8cc
8aa-
4gg
4a-
=17
4g
4.ee-
8b
=18
8cc
8aa-
4gg
4a-
=19
4g
4.ee-
8b
=20
8dd
8cc
4ccc
8aa-
8ff
=21
8gg
8dd
8ee-
8b
8cc
8g
=22
8a-
8f
8g
8d
8f
8f-
=23
4e-
4.cc
8dd-
=24
8cc
8b-
4a-
4cc
=25
4dd-
4.ee-
8ff
=26
8dd
8ff
4ee-
4aa-
=27
4r
4.cc
8dd-
=28
8cc
8b-
4a-
4cc
=29
4f
4.g
8a-
=30
8a
8cc
8b-
8ee-
4f
=31
8e-
8r
4.cc
8dd-
=32
8.cc
16b-
4a-
4cc
=33
4dd-
4.ee-
8ff
=34
8.dd
16ff
4ee-
4ccc
=35
4r
4cc
8.dd-
16cc
=36
8.cc
16b-
4a-
4cc
=37
4g
4.ee-
8b
=38
8cc
8aa-
4gg
4a-
=39
4g
4.ee-
8b
=40
8cc
8aa-
4gg
4a-
=41
4g
4.ee-
8b
=42
8dd
8cc
4ccc
8aa-
8ff
=43
8gg
8dd
8ee-
8b
8cc
8g
=44
8a-
8f
8g
8d
8e-
8c
=45
2f
8g
8a-
=46
8b-
8cc
4.dd-
8ee-
=47
8ee
8gg
4ff
4cc
=48
4ee-
4.dd-
8cc
=49
2f
8g
8a-
=50
8b-
8cc
4.dd-
8ee-
=51
8ee
8gg
4ff
4b-
=52
4dd-
4.cc
8a-
=53
2f
8g
8a-
=54
8b-
8cc
4dd-
8dd
8ee-
=55
8ee
8gg
4ff
4cc
=56
8ee-
8ee-
4.dd-
8cc
=57
2f
8g
8a-
=58
8b-
8cc
4dd-
8ee-
8ee
=59
8ff
8gg
4aa-
8bb-
8bb
=60
8ccc
16r
16cc
4cc
4cc
=61
4.cc
8dd-
8ff
8ee-
=62
8r
16r
16cc
4g
8cc
8g
=63
4.b-
8cc
8ee-
8dd-
=64
8r
16r
16cc
4cc
4cc[
=65
8cc]
8dd-
4aa-
8ff
8b-
=66
8r
16r
16cc
4g
8cc
8g
=67
8a-
8b-
4aa-
8ff
8f
=68
8cc
8dd-
4b-
4ee-
=69
8e-
8r
4a-
4a-
=70
8a-
16r
16a-
4a-
4a-
=71
4a-
4r
4dd-
=72
8cc
16r
16ff
4ee-
4cc
=73
4r
4a-
4a-
=74
8a-
16r
16a-
4a-
4a-
=75
4a-
4g
4f
=76
4f#
4g
4b-
=77
16b-
16e-
8r
4.cc
8dd-
=78
8cc
16r
16b-
4a-
4cc
=79
4dd-
4.ee-
8ff
=80
8dd
16r
16ff
4ee-
4ccc
=81
4r
4.ee-
8ee--
=82
8dd-
8cc
4b-
4ff
=83
8ee-
8dd
4cc
4gg
=84
8ff
8ee
4dd
4aa
=85
8gg#
8gg
4ff#
4ff
=86
8ee
8ee-
4dd
4dd-
=87
8cc
8cc-
4b-
4b--
=88
8a-
8a-
8a-
16r
16ff
4g
=89
4a-
4.ee-
8ff
=90
8ee-
8dd
4dd-
4aa-
=91
4r
4.cc
8dd-
=92
8cc
8b-
8ff
8ee-
4g
=93
4a-
4.ee-
8ff
=94
8ee-
8dd
8dd-
8bb-
4aa-
=95
4r
4.cc-
8dd-
=96
8cc-
8b-
8ff-
8ee-
4g
=97
4r
4.cc
8dd-
=98
8cc
8b-
8ff
8ee-
4g
=99
4r
4.b
8cc
=100
8cc-
8b-
8ff-
8ee-
4g[
=101
8g]
8a-
8d
8e-
8a-
8dd-
=102
8cc
8b-
8a-
8cc
8ff
8cc
=103
8ee-
8dd-
8cc
8ee-
8aa-
8ff
=104
8ee-
8ccc
8gg
8aa-
8dd
8gg
=105
8ff
8ee
8ee-
8dd
8dd-
8b
=106
8cc
8b
8b-
8a
8a-
8e
=107
8g
8f
8f-
8e-
8d-
8A-
=108
8c
8e-
8a-
8cc
8ee-
8aa-
=109
4aaa-
4r
4r
=110
2.r
=111
2.r
==
*-
